src/assets/editar.svg

<svg width="470" height="470" viewBox="0 0 470 470" fill="none" xmlns="http://www.w3.org/2000/svg">
<path d="M438.931 30.375C398.531 -10.125 332.831 -10.125 292.431 30.375L23.8307 298.875C21.7307 300.975 20.4307 303.675 20.0307 306.575L0.130689 453.975C-0.469311 458.175 1.03069 462.375 3.93069 465.275C6.43069 467.775 9.93069 469.275 13.4307 469.275C14.0307 469.275 14.6307 469.275 15.2307 469.175L104.031 457.175C111.431 456.175 116.631 449.375 115.631 441.975C114.631 434.575 107.831 429.375 100.431 430.375L29.2307 439.975L43.1307 337.175L151.331 445.375C153.831 447.875 157.331 449.375 160.831 449.375C164.331 449.375 167.831 447.975 170.331 445.375L438.931 176.875C458.531 157.275 469.331 131.275 469.331 103.575C469.331 75.875 458.531 49.875 438.931 30.375ZM297.631 63.375L342.731 108.475L97.6307 353.575L52.5307 308.475L297.631 63.375ZM160.931 416.775L116.831 372.675L361.931 127.575L406.031 171.675L160.931 416.775ZM424.831 152.375L316.931 44.475C330.631 33.175 347.731 26.975 365.731 26.975C386.231 26.975 405.431 34.975 419.931 49.375C434.431 63.775 442.331 83.075 442.331 103.575C442.331 121.675 436.131 138.675 424.831 152.375Z" fill="#C673A1"/>
</svg>

<?xml version="1.0" encoding="iso-8859-1"?>
<!-- Generator: Adobe Illustrator 19.1.0, SVG Export Plug-In . SVG Version: 6.00 Build 0)  -->
<svg version="1.1" id="Capa_1" xmlns="http://www.w3.org/2000/svg" xmlns:xlink="http://www.w3.org/1999/xlink" x="0px" y="0px"
	 viewBox="0 0 469.331 469.331" style="enable-background:new 0 0 469.331 469.331;" xml:space="preserve">
<g>
	<path d="M438.931,30.403c-40.4-40.5-106.1-40.5-146.5,0l-268.6,268.5c-2.1,2.1-3.4,4.8-3.8,7.7l-19.9,147.4
		c-0.6,4.2,0.9,8.4,3.8,11.3c2.5,2.5,6,4,9.5,4c0.6,0,1.2,0,1.8-0.1l88.8-12c7.4-1,12.6-7.8,11.6-15.2c-1-7.4-7.8-12.6-15.2-11.6
		l-71.2,9.6l13.9-102.8l108.2,108.2c2.5,2.5,6,4,9.5,4s7-1.4,9.5-4l268.6-268.5c19.6-19.6,30.4-45.6,30.4-73.3
		S458.531,49.903,438.931,30.403z M297.631,63.403l45.1,45.1l-245.1,245.1l-45.1-45.1L297.631,63.403z M160.931,416.803l-44.1-44.1
		l245.1-245.1l44.1,44.1L160.931,416.803z M424.831,152.403l-107.9-107.9c13.7-11.3,30.8-17.5,48.8-17.5c20.5,0,39.7,8,54.2,22.4
		s22.4,33.7,22.4,54.2C442.331,121.703,436.131,138.703,424.831,152.403z"/>
</g>
<g>
</g>
<g>
</g>
<g>
</g>
<g>
</g>
<g>
</g>
<g>
</g>
<g>
</g>
<g>
</g>
<g>
</g>
<g>
</g>
<g>
</g>
<g>
</g>
<g>
</g>
<g>
</g>
<g>
</g>
</svg>
